X:3133
L:1/8
M:6/8
K:G
 D | BBB BAA | AGG G2 d | eee efg | d3- d2 d | eee efg | dec BAG | GBB cAF | G3- G2 ||

